svgs/sharp-light/person-military-pointing.svg

<svg xmlns="http://www.w3.org/2000/svg" viewBox="0 0 576 512"><!--! Font Awesome Pro 6.6.0 by @fontawesome - https://fontawesome.com License - https://fontawesome.com/license (Commercial License) Copyright 2024 Fonticons, Inc. --><path d="M256 59.1l0 4.9s0 0 0 0l128 0s0 0 0 0l0-26.2L256 59.1zM398.4 96c1 5.2 1.6 10.5 1.6 16c0 44.2-35.8 80-80 80s-80-35.8-80-80c0-5.5 .6-10.8 1.6-16L224 96l0-32 0-32L384 5.3 416 0l0 32.4L416 64l0 32-17.6 0zm-33.1 0l-90.5 0c-1.8 5-2.7 10.4-2.7 16c0 26.5 21.5 48 48 48s48-21.5 48-48c0-5.6-1-11-2.7-16zM32 224l16 0 176 0 16 0 16 0 128 0 24 0 8 0 1.9 0 4.4 8.8 112 224 7.2 14.3-28.6 14.3-7.2-14.3L416 291.8 416 480l0 32-32 0-128 0-32 0 0-32 0-47.6c0-.2 0-.5 0-.7L224 256 48 256l-16 0 0-32zM256 480l128 0 0-32-128 0 0 32zM384 281.3L273.8 416 384 416l0-134.7zM256 256l0 131.2L363.3 256 256 256z"/></svg>

<svg xmlns="http://www.w3.org/2000/svg" viewBox="0 0 576 512"><!--! Font Awesome Pro 6.4.2 by @fontawesome - https://fontawesome.com License - https://fontawesome.com/license (Commercial License) Copyright 2023 Fonticons, Inc. --><path d="M256 59.1V64v0H384v0V37.8L256 59.1zM398.4 96c1 5.2 1.6 10.5 1.6 16c0 44.2-35.8 80-80 80s-80-35.8-80-80c0-5.5 .6-10.8 1.6-16H224V64 32L384 5.3 416 0V32.4 64 96H398.4zm-33.1 0H274.7c-1.8 5-2.7 10.4-2.7 16c0 26.5 21.5 48 48 48s48-21.5 48-48c0-5.6-1-11-2.7-16zM32 224H48 224h16 16H384h24 8 1.9l4.4 8.8 112 224 7.2 14.3-28.6 14.3-7.2-14.3L416 291.8V480v32H384 256 224V480 432.4c0-.2 0-.5 0-.7V256H48 32V224zM256 480H384V448H256v32zM384 281.3L273.8 416H384V281.3zM256 256V387.2L363.3 256H256z"/></svg>
